src/assets/img/icons/preloader/flower-leg.svg

<svg width="62" height="49" viewBox="0 0 62 49" fill="none" xmlns="http://www.w3.org/2000/svg">
<path d="M46.0293 23.1305L42.0764 20.1658L46.0293 17.201C47.4784 16.1142 49.2186 15.4838 51.0276 15.3905C52.8366 15.2972 54.6324 15.7451 56.1857 16.6771L61.9999 20.1658L56.1857 23.6543C54.6324 24.5863 52.8367 25.0342 51.0276 24.9409C49.2186 24.8476 47.4784 24.2173 46.0293 23.1305Z" fill="#8ABD49"/>
<path d="M42.0764 20.1658L43.5527 21.2726H48.0341L49.7926 24.7925C50.6295 24.9521 51.4847 24.9926 52.3329 24.9128L50.5079 21.2726H60.1556L61.9999 20.1658L60.1556 19.0589H54.7098L56.7396 17.0099L56.1861 16.6778C55.7124 16.3934 55.2136 16.153 54.696 15.9597C54.6531 15.9904 54.6128 16.0247 54.5756 16.0621L51.5802 19.0589H43.5527L42.0764 20.1658Z" fill="#02A437"/>
<path d="M62.0002 20.1658L60.1559 19.0589H54.7101L56.7398 17.0099L56.1864 16.6778C55.7127 16.3934 55.2139 16.153 54.6963 15.9597C54.6534 15.9904 54.6131 16.0247 54.5759 16.0621L51.5805 19.0589H42.0746C40.2051 19.0529 38.3712 19.5708 36.781 20.5539C35.1907 21.5369 33.9077 22.9458 33.0774 24.6209L31.3858 28.0037C31.3014 28.1725 31.2615 28.36 31.2699 28.5486C31.2783 28.7371 31.3348 28.9203 31.434 29.0809C31.5332 29.2414 31.6718 29.3739 31.8366 29.4658C32.0015 29.5577 32.187 29.6059 32.3758 29.6059C32.7818 29.6059 32.3665 31.0753 32.5605 30.6875L35.0581 25.611C35.7058 24.3043 36.7067 23.2053 37.9472 22.4385C39.1878 21.6717 40.6183 21.2678 42.0767 21.2726H48.0344L49.7929 24.7925C50.6298 24.9521 51.485 24.9926 52.3331 24.9128L50.5082 21.2726H60.1559L62.0002 20.1658Z" fill="#6C943A"/>
<path d="M15.9706 26.8662L19.9235 23.9015L15.9706 20.9368C14.5215 19.8499 12.7814 19.2196 10.9724 19.1262C9.16337 19.0329 7.3676 19.4808 5.81434 20.4128L0 23.9015L5.81434 27.39C7.36759 28.322 9.16335 28.77 10.9723 28.6767C12.7813 28.5834 14.5215 27.953 15.9706 26.8662Z" fill="#8ABD49"/>
<path d="M19.9235 23.9014L18.4472 25.0082H13.9658L12.2073 28.5281C11.3704 28.6877 10.5152 28.7282 9.66704 28.6484L11.492 25.0082H1.84431L0 23.9014L1.84431 22.7945H7.29006L5.26035 20.7454L5.81379 20.4134C6.28751 20.129 6.7863 19.8886 7.3039 19.6953C7.34682 19.726 7.38708 19.7603 7.42427 19.7977L10.4197 22.7945H18.4472L19.9235 23.9014Z" fill="#02A437"/>
<path d="M30.6142 31.7393L28.9228 28.3565C28.0925 26.6815 26.8094 25.2725 25.2192 24.2895C23.629 23.3064 21.7951 22.7885 19.9256 22.7945H10.4204L7.42427 19.7977C7.38708 19.7603 7.34682 19.726 7.3039 19.6953C6.7863 19.8886 6.28751 20.129 5.81379 20.4134L5.26035 20.7454L7.29006 22.7945H1.84431L0 23.9014L1.84431 25.0082H11.492L9.66704 28.6484C10.5152 28.7282 11.3704 28.6877 12.2073 28.5281L13.9658 25.0082H19.9235C21.382 25.0033 22.8127 25.4071 24.0533 26.1739C25.294 26.9406 26.295 28.0397 26.9428 29.3464L28.6342 32.7293C28.7655 32.9919 28.9957 33.1915 29.2742 33.2843C29.5527 33.3772 29.8567 33.3556 30.1193 33.2243C30.3818 33.093 30.5815 32.8627 30.6743 32.5842C30.7671 32.3057 30.7455 32.0018 30.6142 31.7392V31.7393Z" fill="#6C943A"/>
<path d="M28.9136 8.04565L31 0.5L32.7886 8.04565V48.5842H28.9136V8.04565Z" fill="#8ABD49"/>
<path d="M31.8943 4.5L33.0002 8.04562L33.0866 48.5842H31.8943V4.5Z" fill="#6C943A"/>
</svg>

<svg width="62" height="49" fill="none" xmlns="http://www.w3.org/2000/svg"><path d="M46.03 23.13l-3.954-2.964L46.03 17.2a9.113 9.113 0 0110.157-.524L62 20.166l-5.814 3.488a9.113 9.113 0 01-10.157-.523z" fill="#8ABD49"/><path d="M42.076 20.166l1.477 1.107h4.481l1.759 3.52c.837.16 1.692.2 2.54.12l-1.825-3.64h9.648L62 20.166l-1.844-1.107H54.71l2.03-2.05-.554-.331a9.038 9.038 0 00-1.49-.718.948.948 0 00-.12.102L51.58 19.06h-8.027l-1.477 1.107z" fill="#02A437"/><path d="M62 20.166l-1.844-1.107H54.71l2.03-2.05-.554-.331a9.038 9.038 0 00-1.49-.718.948.948 0 00-.12.102L51.58 19.06h-9.506a10.006 10.006 0 00-8.998 5.562l-1.691 3.383a1.108 1.108 0 00.99 1.602c.406 0-.01 1.47.184 1.081l2.498-5.076a7.805 7.805 0 017.019-4.338h5.957l1.759 3.52c.837.16 1.692.2 2.54.12l-1.825-3.64h9.648L62 20.166z" fill="#6C943A"/><path d="M15.97 26.866l3.954-2.965-3.953-2.964a9.113 9.113 0 00-10.157-.524L0 23.9l5.814 3.489a9.113 9.113 0 0010.157-.524z" fill="#8ABD49"/><path d="M19.924 23.901l-1.477 1.107h-4.481l-1.759 3.52a9.04 9.04 0 01-2.54.12l1.825-3.64H1.844L0 23.901l1.844-1.107H7.29l-2.03-2.049.554-.332a9.039 9.039 0 011.49-.718.906.906 0 01.12.103l2.996 2.997h8.027l1.477 1.106z" fill="#02A437"/><path d="M30.614 31.74l-1.691-3.383a10.006 10.006 0 00-8.997-5.563H10.42l-2.996-2.996a.946.946 0 00-.12-.103 9.039 9.039 0 00-1.49.718l-.554.332 2.03 2.05H1.844L0 23.9l1.844 1.107h9.648l-1.825 3.64a9.04 9.04 0 002.54-.12l1.759-3.52h5.958a7.805 7.805 0 017.019 4.338l1.691 3.383a1.107 1.107 0 101.98-.99z" fill="#6C943A"/><path d="M28.914 8.046L31 .5l1.789 7.546v40.538h-3.875V8.046z" fill="#8ABD49"/><path d="M31.894 4.5L33 8.046l.087 40.538h-1.193V4.5z" fill="#6C943A"/></svg>
